src/assets/svg/circle.svg

<svg width="184" height="184" viewBox="0 0 184 184" fill="none" xmlns="http://www.w3.org/2000/svg">
<g filter="url(#filter0_d_1369_63108)">
<mask id="path-1-inside-1_1369_63108" fill="white">
<path d="M154.783 113.629C157.594 115.045 161.043 113.921 162.245 111.012C167.788 97.5902 169.385 82.8195 166.783 68.4529C164.18 54.0862 157.503 40.8145 147.604 30.1906C145.458 27.8874 141.834 28.0444 139.698 30.357C137.562 32.6695 137.727 36.26 139.842 38.5914C147.938 47.514 153.404 58.5554 155.565 70.485C157.727 82.4145 156.481 94.6718 152.029 105.867C150.866 108.793 151.971 112.213 154.783 113.629Z"/>
</mask>
<path d="M154.783 113.629C157.594 115.045 161.043 113.921 162.245 111.012C167.788 97.5902 169.385 82.8195 166.783 68.4529C164.18 54.0862 157.503 40.8145 147.604 30.1906C145.458 27.8874 141.834 28.0444 139.698 30.357C137.562 32.6695 137.727 36.26 139.842 38.5914C147.938 47.514 153.404 58.5554 155.565 70.485C157.727 82.4145 156.481 94.6718 152.029 105.867C150.866 108.793 151.971 112.213 154.783 113.629Z" fill="#E2E2E2" fill-opacity="0.3" stroke="#636363" stroke-opacity="0.4" stroke-width="1.68889" mask="url(#path-1-inside-1_1369_63108)"/>
<mask id="path-2-inside-2_1369_63108" fill="white">
<path d="M154.862 113.471C157.677 114.88 158.835 118.318 157.219 121.019C151.801 130.075 144.545 137.922 135.897 144.041C125.694 151.26 113.869 155.851 101.468 157.408C89.0667 158.965 76.4732 157.44 64.8026 152.967C53.1321 148.494 42.7446 141.212 34.5605 131.766C26.3763 122.32 20.6481 111.002 17.8831 98.8133C15.1182 86.6247 15.4018 73.9423 18.709 61.8896C22.0162 49.8368 28.2448 38.7856 36.8431 29.715C44.1315 22.0263 52.932 15.9617 62.667 11.8888C65.5711 10.6738 68.8087 12.3094 69.8027 15.2964C70.7967 18.2834 69.1681 21.4874 66.2803 22.7407C58.318 26.1965 51.1149 31.23 45.1166 37.5578C37.8081 45.2678 32.5138 54.6613 29.7027 64.9061C26.8915 75.151 26.6504 85.931 29.0007 96.2913C31.3509 106.652 36.2199 116.272 43.1764 124.302C50.1329 132.331 58.9622 138.52 68.8822 142.322C78.8022 146.124 89.5067 147.42 100.047 146.097C110.588 144.773 120.64 140.871 129.312 134.735C136.43 129.699 142.438 123.286 146.992 115.897C148.644 113.217 152.047 112.061 154.862 113.471Z"/>
</mask>
<path d="M154.862 113.471C157.677 114.88 158.835 118.318 157.219 121.019C151.801 130.075 144.545 137.922 135.897 144.041C125.694 151.26 113.869 155.851 101.468 157.408C89.0667 158.965 76.4732 157.44 64.8026 152.967C53.1321 148.494 42.7446 141.212 34.5605 131.766C26.3763 122.32 20.6481 111.002 17.8831 98.8133C15.1182 86.6247 15.4018 73.9423 18.709 61.8896C22.0162 49.8368 28.2448 38.7856 36.8431 29.715C44.1315 22.0263 52.932 15.9617 62.667 11.8888C65.5711 10.6738 68.8087 12.3094 69.8027 15.2964C70.7967 18.2834 69.1681 21.4874 66.2803 22.7407C58.318 26.1965 51.1149 31.23 45.1166 37.5578C37.8081 45.2678 32.5138 54.6613 29.7027 64.9061C26.8915 75.151 26.6504 85.931 29.0007 96.2913C31.3509 106.652 36.2199 116.272 43.1764 124.302C50.1329 132.331 58.9622 138.52 68.8822 142.322C78.8022 146.124 89.5067 147.42 100.047 146.097C110.588 144.773 120.64 140.871 129.312 134.735C136.43 129.699 142.438 123.286 146.992 115.897C148.644 113.217 152.047 112.061 154.862 113.471Z" fill="url(#paint0_linear_1369_63108)" stroke="white" stroke-opacity="0.7" stroke-width="1.68889" mask="url(#path-2-inside-2_1369_63108)"/>
<mask id="path-3-inside-3_1369_63108" fill="white">
<path d="M69.541 15.0005C68.6043 12.2061 70.1069 9.16196 72.9602 8.42359C84.4153 5.45922 96.4303 5.20453 108.044 7.7128C119.658 10.2211 130.497 15.4116 139.708 22.8393C142.002 24.6893 142.114 28.0823 140.108 30.241L139.613 30.7736C137.606 32.9324 134.242 33.0363 131.925 31.2148C124.233 25.1673 115.247 20.9313 105.637 18.8559C96.0277 16.7804 86.0948 16.9305 76.5923 19.2643C73.7301 19.9673 70.7088 18.4843 69.7721 15.6899L69.541 15.0005Z"/>
</mask>
<path d="M69.541 15.0005C68.6043 12.2061 70.1069 9.16196 72.9602 8.42359C84.4153 5.45922 96.4303 5.20453 108.044 7.7128C119.658 10.2211 130.497 15.4116 139.708 22.8393C142.002 24.6893 142.114 28.0823 140.108 30.241L139.613 30.7736C137.606 32.9324 134.242 33.0363 131.925 31.2148C124.233 25.1673 115.247 20.9313 105.637 18.8559C96.0277 16.7804 86.0948 16.9305 76.5923 19.2643C73.7301 19.9673 70.7088 18.4843 69.7721 15.6899L69.541 15.0005Z" fill="#D5DCFF" stroke="#748BFF" stroke-opacity="0.5" stroke-width="1.68889" mask="url(#path-3-inside-3_1369_63108)"/>
</g>
<defs>
<filter id="filter0_d_1369_63108" x="0.373832" y="0.317757" width="183.252" height="183.252" filterUnits="userSpaceOnUse" color-interpolation-filters="sRGB">
<feFlood flood-opacity="0" result="BackgroundImageFix"/>
<feColorMatrix in="SourceAlpha" type="matrix" values="0 0 0 0 0 0 0 0 0 0 0 0 0 0 0 0 0 0 127 0" result="hardAlpha"/>
<feOffset dy="9.94392"/>
<feGaussianBlur stdDeviation="7.81308"/>
<feComposite in2="hardAlpha" operator="out"/>
<feColorMatrix type="matrix" values="0 0 0 0 0.0823529 0 0 0 0 0.0823529 0 0 0 0 0.0823529 0 0 0 0.08 0"/>
<feBlend mode="normal" in2="BackgroundImageFix" result="effect1_dropShadow_1369_63108"/>
<feBlend mode="normal" in="SourceGraphic" in2="effect1_dropShadow_1369_63108" result="shape"/>
</filter>
<linearGradient id="paint0_linear_1369_63108" x1="24.2194" y1="144.85" x2="164.163" y2="5.47708" gradientUnits="userSpaceOnUse">
<stop stop-color="#7AAFFF"/>
<stop offset="1" stop-color="#642DFF"/>
</linearGradient>
</defs>
</svg>

<svg xmlns="http://www.w3.org/2000/svg" width="184" height="184" fill="none"><g filter="url(#a)"><mask id="b" fill="#fff"><path d="M154.783 113.629c2.811 1.416 6.26.292 7.462-2.617a76.005 76.005 0 0 0-14.641-80.821c-2.146-2.304-5.77-2.147-7.906.166-2.136 2.313-1.971 5.903.144 8.234a64.599 64.599 0 0 1 12.187 67.276c-1.163 2.926-.058 6.346 2.754 7.762Z"/></mask><path fill="#E2E2E2" fill-opacity=".3" stroke="#636363" stroke-opacity=".4" stroke-width="1.689" d="M154.783 113.629c2.811 1.416 6.26.292 7.462-2.617a76.005 76.005 0 0 0-14.641-80.821c-2.146-2.304-5.77-2.147-7.906.166-2.136 2.313-1.971 5.903.144 8.234a64.599 64.599 0 0 1 12.187 67.276c-1.163 2.926-.058 6.346 2.754 7.762Z" mask="url(#b)"/><mask id="d" fill="#fff"><path d="M154.862 113.471c2.815 1.409 3.973 4.847 2.357 7.548a76.003 76.003 0 0 1-92.416 31.948A76.005 76.005 0 0 1 18.709 61.89a76 76 0 0 1 43.958-50.001c2.904-1.215 6.142.42 7.136 3.407.994 2.987-.635 6.191-3.523 7.445a64.6 64.6 0 1 0 80.712 93.156c1.652-2.68 5.055-3.836 7.87-2.426Z"/></mask><path fill="url(#c)" stroke="#fff" stroke-opacity=".7" stroke-width="1.689" d="M154.862 113.471c2.815 1.409 3.973 4.847 2.357 7.548a76.003 76.003 0 0 1-92.416 31.948A76.005 76.005 0 0 1 18.709 61.89a76 76 0 0 1 43.958-50.001c2.904-1.215 6.142.42 7.136 3.407.994 2.987-.635 6.191-3.523 7.445a64.6 64.6 0 1 0 80.712 93.156c1.652-2.68 5.055-3.836 7.87-2.426Z" mask="url(#d)"/><mask id="e" fill="#fff"><path d="M69.541 15c-.937-2.794.566-5.838 3.42-6.576a76 76 0 0 1 66.747 14.415c2.294 1.85 2.406 5.243.4 7.402l-.495.533c-2.007 2.158-5.371 2.262-7.688.44a64.596 64.596 0 0 0-55.333-11.95c-2.862.703-5.883-.78-6.82-3.574l-.231-.69Z"/></mask><path fill="#D5DCFF" stroke="#748BFF" stroke-opacity=".5" stroke-width="1.689" d="M69.541 15c-.937-2.794.566-5.838 3.42-6.576a76 76 0 0 1 66.747 14.415c2.294 1.85 2.406 5.243.4 7.402l-.495.533c-2.007 2.158-5.371 2.262-7.688.44a64.596 64.596 0 0 0-55.333-11.95c-2.862.703-5.883-.78-6.82-3.574l-.231-.69Z" mask="url(#e)"/></g><defs><linearGradient id="c" x1="24.219" x2="164.163" y1="144.85" y2="5.477" gradientUnits="userSpaceOnUse"><stop stop-color="#7AAFFF"/><stop offset="1" stop-color="#642DFF"/></linearGradient><filter id="a" width="183.252" height="183.252" x=".374" y=".318" color-interpolation-filters="sRGB" filterUnits="userSpaceOnUse"><feFlood flood-opacity="0" result="BackgroundImageFix"/><feColorMatrix in="SourceAlpha" result="hardAlpha" values="0 0 0 0 0 0 0 0 0 0 0 0 0 0 0 0 0 0 127 0"/><feOffset dy="9.944"/><feGaussianBlur stdDeviation="7.813"/><feComposite in2="hardAlpha" operator="out"/><feColorMatrix values="0 0 0 0 0.0823529 0 0 0 0 0.0823529 0 0 0 0 0.0823529 0 0 0 0.08 0"/><feBlend in2="BackgroundImageFix" result="effect1_dropShadow_1369_63108"/><feBlend in="SourceGraphic" in2="effect1_dropShadow_1369_63108" result="shape"/></filter></defs></svg>
